X:28
T:Scotland the Brave
C:Scotland
R:March
M:4/4
L:1/8
K:G major
%
{^C}[G,4D4] z2 | {^C}[G,4D4]z2 | {^C}[G,4D4] z2 | {^C}[G,4D4] z2 ||
%
| "G"G2 G>A BGBd | g2 g>f gdBG | "C"c2 e>c "G"BdBG | "D7"A2 d>d d4 |
"G"G2 G>A BGBd | g2 g>f gdBG | "C"c2 e>c "G"BdBG | "D"A2 G>F "G"G4 |
%
| "D"a2 a>a af d2 | "G"g2 b>a ge d2 | "Em"g2 g>g "D"f2 g>f | "C"egfe "D"dcBA |
"G"G2 G>A BGBd | g2 g>f gdBG | "C"c2 e>c "G"BdBG | "D7"A2 G>F | "G"G3 d ||
